assets/img/feature_4.svg

<svg width="72" height="66" viewBox="0 0 72 66" fill="none" xmlns="http://www.w3.org/2000/svg">
<mask id="mask0_191_477" style="mask-type:alpha" maskUnits="userSpaceOnUse" x="0" y="0" width="72" height="66">
<path fill-rule="evenodd" clip-rule="evenodd" d="M1.62665 7.29941C0.361328 9.94181 0.361328 13.4009 0.361328 20.3191V32.1572C0.361328 39.0754 0.361328 42.5345 1.62665 45.1769C2.73965 47.5012 4.51562 49.3909 6.70001 50.5752C9.18334 51.9216 12.4342 51.9216 18.9359 51.9216H39.0645L50.573 64.4702C52.39 66.455 55.5541 65.0861 55.5541 62.3153V51.9175C60.3566 51.8935 63.0427 51.727 65.1671 50.5752C67.3515 49.3909 69.1275 47.5012 70.2405 45.1769C71.5058 42.5345 71.5058 39.0754 71.5058 32.1572V20.3191C71.5058 13.4009 71.5058 9.94181 70.2405 7.29941C69.1275 4.97509 67.3515 3.08536 65.1671 1.90106C62.6838 0.554688 59.433 0.554688 52.9313 0.554688H18.9359C12.4342 0.554688 9.18334 0.554688 6.70001 1.90106C4.51562 3.08536 2.73965 4.97509 1.62665 7.29941Z" fill="#8CFF31"/>
</mask>
<g mask="url(#mask0_191_477)">
<path fill-rule="evenodd" clip-rule="evenodd" d="M1.62665 7.29941C0.361328 9.94181 0.361328 13.4009 0.361328 20.3191V32.1572C0.361328 39.0754 0.361328 42.5345 1.62665 45.1769C2.73965 47.5012 4.51562 49.3909 6.70001 50.5752C9.18334 51.9216 12.4342 51.9216 18.9359 51.9216H39.0645L50.573 64.4702C52.39 66.455 55.5541 65.0861 55.5541 62.3153V51.9175C60.3566 51.8935 63.0427 51.727 65.1671 50.5752C67.3515 49.3909 69.1275 47.5012 70.2405 45.1769C71.5058 42.5345 71.5058 39.0754 71.5058 32.1572V20.3191C71.5058 13.4009 71.5058 9.94181 70.2405 7.29941C69.1275 4.97509 67.3515 3.08536 65.1671 1.90106C62.6838 0.554688 59.433 0.554688 52.9313 0.554688H18.9359C12.4342 0.554688 9.18334 0.554688 6.70001 1.90106C4.51562 3.08536 2.73965 4.97509 1.62665 7.29941Z" fill="#8CFF31"/>
<path d="M21.1133 62.0654C29.3533 65.4177 30.7122 68.3705 26.7289 75.7392C30.1384 68.3826 33.093 67.0434 40.5869 70.5949C38.841 69.63 29.8877 66.9624 34.9713 56.9211C31.8334 64.9703 28.6258 65.6326 21.1133 62.0654Z" fill="#07021A"/>
<path d="M2.4585 21.7217C10.1492 15.5288 13.7469 15.7998 18.7543 23.6337C13.4497 16.3632 13.7407 12.7743 21.223 7.41288C19.3464 8.58789 11.9362 15.8419 4.92716 5.50082C11.0503 12.8806 9.966 16.3506 2.4585 21.7217Z" fill="#07021A"/>
<path d="M27.0713 29.334C29.7017 24.5978 31.6157 23.9715 35.8886 26.8403C31.584 24.3171 30.9598 22.4551 33.6621 18.1801C32.9477 19.1672 30.6909 24.3762 24.8448 20.6738C29.5951 23.0784 29.7845 25.0489 27.0713 29.334Z" fill="#07021A"/>
<path d="M23.5298 57.7065C24.4363 55.4599 25.2563 55.0752 27.3298 56.1084C25.2618 55.2302 24.8768 54.4396 25.8417 52.3934C25.5785 52.8709 24.8659 55.3063 22.0417 53.9916C24.3022 54.7922 24.499 55.6552 23.5298 57.7065Z" fill="#07021A"/>
<ellipse cx="6.49605" cy="6.72231" rx="6.49605" ry="6.72231" transform="matrix(0.606366 0.795186 0.795186 -0.606366 8.56738 41.8335)" fill="#07021A"/>
<ellipse cx="3.50975" cy="3.632" rx="3.50975" ry="3.632" transform="matrix(0.606366 0.795186 0.795186 -0.606366 30.481 47.2891)" fill="#07021A"/>
<ellipse cx="3.50975" cy="3.632" rx="3.50975" ry="3.632" transform="matrix(0.606366 0.795186 0.795186 -0.606366 -6.56104 -3.854)" fill="#07021A"/>
<path d="M52.1611 51.4702C55.8126 48.5299 57.5208 48.6585 59.8983 52.378C57.3797 48.926 57.5179 47.2221 61.0704 44.6765C60.1794 45.2344 56.6611 48.6785 53.3332 43.7687C56.2405 47.2725 55.7256 48.9201 52.1611 51.4702Z" fill="#07021A"/>
<path d="M49.7339 26.1636C57.9739 29.5159 59.3328 32.4686 55.3495 39.8374C58.759 32.4807 61.7136 31.1415 69.2075 34.693C67.4616 33.7282 58.5083 31.0606 63.5919 21.0192C60.4541 29.0684 57.2464 29.7308 49.7339 26.1636Z" fill="#07021A"/>
<path d="M52.1509 21.8042C53.0574 19.5575 53.8774 19.1729 55.9509 20.206C53.8829 19.3279 53.4979 18.5372 54.4628 16.491C54.1996 16.9685 53.487 19.404 50.6628 18.0892C52.9233 18.8899 53.1201 19.7529 52.1509 21.8042Z" fill="#07021A"/>
<ellipse cx="6.49605" cy="6.72231" rx="6.49605" ry="6.72231" transform="matrix(0.606366 0.795186 0.795186 -0.606366 37.1885 5.93164)" fill="#07021A"/>
<ellipse cx="3.50975" cy="3.632" rx="3.50975" ry="3.632" transform="matrix(0.606366 0.795186 0.795186 -0.606366 59.1021 11.3867)" fill="#07021A"/>
</g>
</svg>

<svg xmlns="http://www.w3.org/2000/svg" width="72" height="66" fill="none" viewBox="0 0 72 66"><mask id="a" width="72" height="66" x="0" y="0" maskUnits="userSpaceOnUse" style="mask-type:alpha"><path fill="#8CFF31" fill-rule="evenodd" d="M1.627 7.3C.36 9.941.36 13.4.36 20.32v11.837c0 6.918 0 10.378 1.266 13.02C2.74 47.5 4.516 49.39 6.7 50.575c2.483 1.347 5.734 1.347 12.236 1.347h20.129L50.573 64.47c1.817 1.985 4.981.616 4.981-2.155V51.917c4.803-.023 7.489-.19 9.613-1.342 2.184-1.184 3.96-3.074 5.073-5.398 1.266-2.642 1.266-6.102 1.266-13.02V20.32c0-6.918 0-10.377-1.266-13.02-1.112-2.324-2.888-4.214-5.073-5.398C62.684.555 59.433.555 52.931.555H18.936C12.434.555 9.183.555 6.7 1.9 4.516 3.085 2.74 4.975 1.627 7.3Z" clip-rule="evenodd"/></mask><g mask="url(#a)"><path fill="#8CFF31" fill-rule="evenodd" d="M1.627 7.3C.36 9.941.36 13.4.36 20.32v11.837c0 6.918 0 10.378 1.266 13.02C2.74 47.5 4.516 49.39 6.7 50.575c2.483 1.347 5.734 1.347 12.236 1.347h20.129L50.573 64.47c1.817 1.985 4.981.616 4.981-2.155V51.917c4.803-.023 7.489-.19 9.613-1.342 2.184-1.184 3.96-3.074 5.073-5.398 1.266-2.642 1.266-6.102 1.266-13.02V20.32c0-6.918 0-10.377-1.266-13.02-1.112-2.324-2.888-4.214-5.073-5.398C62.684.555 59.433.555 52.931.555H18.936C12.434.555 9.183.555 6.7 1.9 4.516 3.085 2.74 4.975 1.627 7.3Z" clip-rule="evenodd"/><path fill="#07021A" d="M21.113 62.065c8.24 3.353 9.6 6.306 5.616 13.674 3.41-7.356 6.364-8.696 13.858-5.144-1.746-.965-10.7-3.633-5.616-13.674-3.138 8.05-6.345 8.712-13.858 5.144ZM2.458 21.722c7.691-6.193 11.289-5.922 16.296 1.912-5.304-7.27-5.013-10.86 2.469-16.221-1.877 1.175-9.287 8.429-16.296-1.912 6.123 7.38 5.039 10.85-2.468 16.22ZM27.071 29.334c2.63-4.736 4.545-5.363 8.818-2.494-4.305-2.523-4.93-4.385-2.227-8.66-.714.987-2.971 6.196-8.817 2.494 4.75 2.404 4.94 4.375 2.226 8.66ZM23.53 57.706c.906-2.246 1.726-2.63 3.8-1.598-2.068-.878-2.453-1.668-1.488-3.715-.264.478-.976 2.913-3.8 1.599 2.26.8 2.457 1.663 1.488 3.715Z"/><ellipse cx="6.496" cy="6.722" fill="#07021A" rx="6.496" ry="6.722" transform="scale(1 -1) rotate(-52.673 -37.97 -29.57)"/><ellipse cx="3.51" cy="3.632" fill="#07021A" rx="3.51" ry="3.632" transform="scale(1 -1) rotate(-52.673 -32.524 -54.432)"/><ellipse cx="3.51" cy="3.632" fill="#07021A" rx="3.51" ry="3.632" transform="scale(1 -1) rotate(-52.673 .612 8.554)"/><path fill="#07021A" d="M52.161 51.47c3.652-2.94 5.36-2.812 7.737.908-2.518-3.452-2.38-5.156 1.172-7.702-.89.558-4.409 4.002-7.737-.907 2.907 3.504 2.393 5.151-1.172 7.701ZM49.734 26.164c8.24 3.352 9.599 6.305 5.615 13.673 3.41-7.356 6.365-8.696 13.858-5.144-1.745-.965-10.699-3.632-5.615-13.674-3.138 8.05-6.346 8.712-13.858 5.145ZM52.15 21.804c.907-2.246 1.727-2.631 3.8-1.598-2.067-.878-2.452-1.669-1.487-3.715-.263.477-.976 2.913-3.8 1.598 2.26.8 2.457 1.664 1.488 3.715Z"/><ellipse cx="6.496" cy="6.722" fill="#07021A" rx="6.496" ry="6.722" transform="scale(1 -1) rotate(-52.673 12.603 -40.528)"/><ellipse cx="3.51" cy="3.632" fill="#07021A" rx="3.51" ry="3.632" transform="scale(1 -1) rotate(-52.673 18.05 -65.39)"/></g></svg>
